docs/img/arrow-down.svg

<svg width="7" height="8" viewBox="0 0 7 8" fill="none" xmlns="http://www.w3.org/2000/svg">
<path d="M0 3.5V2.5H1V3.5H0Z" fill="#222222"/>
<path d="M2 4.5H1V3.5H2V4.5Z" fill="#222222"/>
<path d="M3 5.5H2V4.5H3V5.5Z" fill="#222222"/>
<path d="M4 5.5V6.5H3V5.5H4Z" fill="#222222"/>
<path d="M5 4.5V5.5H4V4.5H5Z" fill="#222222"/>
<path d="M6 3.5H5V4.5H6V3.5Z" fill="#222222"/>
<path d="M6 3.5H7V2.5H6V3.5Z" fill="#222222"/>
</svg>

<svg width="7" height="8" fill="none" xmlns="http://www.w3.org/2000/svg"><path d="M0 3.5v-1h1v1H0Zm2 1H1v-1h1v1Zm1 1H2v-1h1v1Zm1 0v1H3v-1h1Zm1-1v1H4v-1h1Zm1-1H5v1h1v-1Zm0 0h1v-1H6v1Z" fill="#222"/></svg>
